X:77
T:Reel de St Esprit
S:Carmen Gu\'erard
M:4/4
L:1/8
K:D
A |: ddcB AGFE | DFFD FFDF | CEEC EECE | DFFD FAFA |
ddcB AGFE | DFFD FFDF | CEEC EECE | DdAF D3f :|
ecAc eece | ddfd addf | ecAc eece | dfec dAdf |
ecAc eece | ddfd addf | ecAc eece | dfec d3A :|

